!!!COM: Bach, Johann Sebastian
!!!OPR: Joh. Seb. Bachs vierstimmige Choralges‰nge
!!!XEN: Four-part Chorales
!!!OTL: 133. Nun danket Alle Gott
!!!SCT: BWV 386
!!!SCA: Thematisch-systematisches Verzeichnis der musikalischen Werke Johann Sebastian Bach: Bach-Werke-Verzeichnis (Schmieder)
!!!YOR: Bach Gesellschaft Edition xxxix
!!!ENC: Steven Rasmussen
!!!CDT: 1685/3//-1750/7/28/
!!!OCY: Deutschland
!!!YEC: Copyright (c) 1994, 2000 Center for Computer Assisted Research in the Humanities
!!!YEM: Rights to all derivative editions reserved
!!!YEN: United States of America
**kern	**silbe	**kern	**kern	**kern
*I:[SOPRANO]	*I:[SOPRANO]	*I:[ALTO]	*I:[TENORE]	*I:[BASSO]
*>[A,A,B]	*	*>[A,A,B]	*>[A,A,B]	*>[A,A,B]
*>A	*	*>A	*>A	*>A
*clefG2	*	*clefG2	*clefGv2	*clefF4
*k[f#c#g#]	*	*k[f#c#g#]	*k[f#c#g#]	*k[f#c#g#]
*A:	*	*A:	*A:	*A:
*M4/4	*	*M4/4	*M4/4	*M4/4
4ee	Nunder	4a	4c#	4AA
=1	=1	=1	=1	=1
4ee	dan-gro-	4a	4c#	8AL
.	.	.	.	8BJ
4ee	-ket-sse	4a	4c#	8c#L
.	.	.	.	8AJ
4ff#	Al-Din-	4a	4d	8DL
.	.	.	.	8EJ
4ff#	-le-ge	4a	4d	8F#L
.	.	.	.	8DJ
=2	=2	=2	=2	=2
2ee;	Gotttut	2a;	2c#;	2A;
4r	.	4r	4r	4r
4cc#	mitan	4a	4f#	4A
=3	=3	=3	=3	=3
4dd	Her-uns	4b	4e	4G#
4cc#	-zen,und	4a	4e	4A
4b	Mundal-	4g#	4e	8EL
.	.	.	.	8DJ
8.cc#L	und-len	4a	4e	8C#L
.	.	.	.	8AAJ
16ddJk	.	.	.	.
=4	=4	=4	=4	=4
2b	H√§n-En-	8aL	8eL	2E
.	.	8f#J	16dL	.
.	.	.	16c#JJ	.
.	.	4g#	4d	.
4a;	-den,-den;	4e;	4c#;	4AA;
=:|!	=:|!	=:|!	=:|!	=:|!
*>B	*	*>B	*>B	*>B
4b	der	8g#L	8BL	4E
.	.	8f#J	8AJ	.
=5	=5	=5	=5	=5
4b	uns	4e	8G#L	8EL
.	.	.	8AJ	8F#J
4b	von	4e	4B	8G#L
.	.	.	.	8EJ
4cc#	Mut-	4e	8BL	8AAL
.	.	.	16AL	8BBJ
.	.	.	16G#JJ	.
4cc#	-ter-	4e	4A	8C#L
.	.	.	.	8AAJ
=6	=6	=6	=6	=6
2b;	-leib	2e;	2G#;	2EE;
4r	.	4r	4r	4r
4b	und	4g#	4e	4E
=7	=7	=7	=7	=7
8cc#L	Kin-	4a	4e	8AL
8dd#J	.	.	.	8BJ
4ee	-des-	4g#	4e	8c#L
.	.	.	.	8G#J
4ee	-bei-	4f#	4c#	8AL
.	.	.	.	8F#J
4dd#	-nen	4f#	4B	8BL
.	.	.	.	8BBJ
=8	=8	=8	=8	=8
2ee;	an	2g#;	2B;	2E;
4r	.	4r	4r	4r
4ee	un-	4a	4c#	4AA
=9	=9	=9	=9	=9
4ff#	-z√§h-	8aL	4d	8DL
.	.	8bJ	.	8C#J
4ee	-lig	4cc#	4c#	8BBL
.	.	.	.	8AA#J
4dd	viel	(8cc#	4f#	8BBL
.	.	4b)	.	8DJ
4cc#	zu	.	8gnL	8EL
.	.	8a#	8f#J	8F#J
=10	=10	=10	=10	=10
2dd;	gut	2b;	2f#;	2BB;
4r	.	4r	4r	4r
4cc#	und	4a	4e	8C#L
.	.	.	.	8DJ
=11	=11	=11	=11	=11
4b	noch	4g#	4e	4E
8.cc#L	jetz-	4a	8eL	8AL
.	.	.	8f#J	8F#J
16ddJk	.	.	.	.
4.b	-und	4a	8f#L	8DL
.	.	.	8dJ	8BBJ
.	.	4g#	8.BL	8EL
8a	ge-	.	.	8EEJ
.	.	.	16eJk	.
=12	=12	=12	=12	=12
2.a;	-tan.	2.e;	2.c#;	2.AA;
==|!	==|!	==|!	==|!	==|!
*-	*-	*-	*-	*-
!!!RWG: Key is interpreted using the Humdrum key tool.
!!!END: 1994/07/19
!!!EMD: Converted from MuseData to Humdrum Dec 19, 2000, by Andreas Kornstaedt using muse2kern.
!!!EED: Craig Stuart Sapp
!!!EEV: 2024/03/31
!!!ONB: Some non-unicode characters
